icons/label-chevron-up.svg

<svg xmlns="http://www.w3.org/2000/svg" width="24" height="24" viewBox="0 0 24 24">
  <path d="M15.0924635,4 C15.6691887,4 16.2178408,4.24896086 16.5976169,4.68299078 L21.8476169,10.6829908 C22.5074124,11.4370428 22.5074124,12.5629572 21.8476169,13.3170092 L16.5976169,19.3170092 C16.2178408,19.7510391 15.6691887,20 15.0924635,20 L4,20 C2.8954305,20 2,19.1045695 2,18 L2,6 C2,4.8954305 2.8954305,4 4,4 L15.0924635,4 Z M10.6128994,9.70970461 C10.2206082,9.40467972 9.65337718,9.43240926 9.29289322,9.79289322 L9.29289322,9.79289322 L6.29289322,12.7928932 L6.20970461,12.8871006 C5.90467972,13.2793918 5.93240926,13.8466228 6.29289322,14.2071068 L6.29289322,14.2071068 L6.38710056,14.2902954 C6.77939176,14.5953203 7.34662282,14.5675907 7.70710678,14.2071068 L7.70710678,14.2071068 L10,11.915 L12.2928932,14.2071068 L12.3871006,14.2902954 C12.7793918,14.5953203 13.3466228,14.5675907 13.7071068,14.2071068 C14.0976311,13.8165825 14.0976311,13.1834175 13.7071068,12.7928932 L13.7071068,12.7928932 L10.7071068,9.79289322 Z"/>
</svg>

<svg xmlns="http://www.w3.org/2000/svg" viewBox="0 0 24 24">
  <path d="M15.1 4a2 2 0 0 1 1.5.68l5.25 6a2 2 0 0 1 0 2.64l-5.25 6a2 2 0 0 1-1.5.68H4a2 2 0 0 1-2-2V6c0-1.1.9-2 2-2h11.1zm-4.5 5.71a1 1 0 0 0-1.32.08l-3 3-.08.1a1 1 0 0 0 .08 1.32l.1.08a1 1 0 0 0 1.32-.08L10 11.9l2.3 2.3.09.08a1 1 0 0 0 1.32-1.5l-3-3z"/>
</svg>
